X: 24
T:Orphan, The
M:6/8
L:1/8
Q:120
S:THSP
R:jig
Z:
K:Emin
"Em"~E3 EDB,|GFG AGA|~B3 ABA|GEF EDB,|
"D"~A,3 EDB,|GFG AGA|~B3 ABA
|1 "Em"GED EGF:|2 "Em"GED E2B||:
"Em"ege dBA|"D"GAB d2d|"Em"(3efg edBA|"D"BGE DB,D|
"Em"~E3 EDB,|GFG AGA|"D"~B3 ABA|1 "Em"GED E2B:|2 "Em"GED EGF|]
